flaticon/household/bookcase-1.svg

<svg xmlns="http://www.w3.org/2000/svg" width="32" height="32" viewBox="0 0 24 24">
    <path d="M 7.601562 22.398438 L 13.199219 22.398438 L 13.199219 1.199219 L 1.199219 1.199219 L 1.199219 22.398438 Z M 12.398438 21.601562 L 7.601562 21.601562 L 7.601562 17.199219 L 12.398438 17.199219 Z M 11.199219 16.398438 L 10.800781 16.398438 L 10.800781 13.601562 L 11.199219 13.601562 Z M 10 16.398438 L 9.601562 16.398438 L 9.601562 13.601562 L 10 13.601562 Z M 12 16.398438 L 12 13.601562 L 12.398438 13.601562 L 12.398438 16.398438 Z M 12.398438 12.800781 L 8.800781 12.800781 L 8.800781 16.398438 L 7.601562 16.398438 L 7.601562 12 L 12.398438 12 Z M 12.398438 11.199219 L 7.601562 11.199219 L 7.601562 6.800781 L 12.398438 6.800781 Z M 7.601562 2 L 12.398438 2 L 12.398438 6 L 7.601562 6 Z M 2 2 L 6.800781 2 L 6.800781 6 L 2 6 Z M 2 6.800781 L 6.800781 6.800781 L 6.800781 11.199219 L 5.601562 11.199219 L 5.601562 7.601562 L 2 7.601562 Z M 3.601562 11.199219 L 3.199219 11.199219 L 3.199219 8.398438 L 3.601562 8.398438 Z M 4.800781 11.199219 L 4.398438 11.199219 L 4.398438 8.398438 L 4.800781 8.398438 Z M 2 8.398438 L 2.398438 8.398438 L 2.398438 11.199219 L 2 11.199219 Z M 2 12 L 6.800781 12 L 6.800781 16.398438 L 2 16.398438 Z M 2 21.601562 L 2 17.199219 L 6.800781 17.199219 L 6.800781 21.601562 Z M 2 21.601562"/>
    <path d="M10.800781 17.601562L9.199219 17.601562C8.980469 17.601562 8.800781 17.777344 8.800781 18 8.800781 18.222656 8.980469 18.398438 9.199219 18.398438L10.800781 18.398438C11.019531 18.398438 11.199219 18.222656 11.199219 18 11.199219 17.777344 11.019531 17.601562 10.800781 17.601562zM5.199219 17.601562L3.601562 17.601562C3.378906 17.601562 3.199219 17.777344 3.199219 18 3.199219 18.222656 3.378906 18.398438 3.601562 18.398438L5.199219 18.398438C5.421875 18.398438 5.601562 18.222656 5.601562 18 5.601562 17.777344 5.421875 17.601562 5.199219 17.601562zM24 18L21.710938 18C21.71875 17.96875 21.730469 17.9375 21.738281 17.902344 21.816406 17.515625 21.6875 17.125 21.398438 16.859375 21.078125 16.5625 20.871094 16.238281 20.789062 15.902344L20.710938 15.601562 20 15.601562 20 14.34375C20.6875 14.164062 21.199219 13.542969 21.199219 12.800781L21.199219 10.800781 18 10.800781 18 12.800781C18 13.542969 18.511719 14.164062 19.199219 14.34375L19.199219 15.601562 18.648438 15.601562 18.570312 15.902344C18.488281 16.238281 18.28125 16.5625 17.960938 16.859375 17.671875 17.125 17.546875 17.515625 17.621094 17.902344 17.628906 17.9375 17.640625 17.96875 17.652344 18L15.199219 18 15.199219 21.199219 16.59375 21.199219 15.632812 23.441406C15.546875 23.644531 15.640625 23.878906 15.84375 23.96875 15.894531 23.988281 15.945312 24 16 24 16.15625 24 16.304688 23.910156 16.367188 23.757812L17.464844 21.199219 21.738281 21.199219 22.832031 23.757812C22.898438 23.910156 23.042969 24 23.199219 24 23.253906 24 23.304688 23.988281 23.359375 23.96875 23.558594 23.878906 23.65625 23.644531 23.566406 23.441406L22.605469 21.199219 24 21.199219zM20 11.601562L20.398438 11.601562 20.398438 12.800781C20.398438 13.09375 20.238281 13.355469 20 13.492188zM18.800781 12.800781L18.800781 11.601562 19.199219 11.601562 19.199219 13.492188C18.960938 13.355469 18.800781 13.09375 18.800781 12.800781zM18.40625 17.746094C18.375 17.585938 18.464844 17.480469 18.503906 17.445312 18.851562 17.125 19.101562 16.773438 19.25 16.398438L20.109375 16.398438C20.261719 16.773438 20.511719 17.125 20.855469 17.445312 20.898438 17.480469 20.984375 17.585938 20.953125 17.746094 20.925781 17.890625 20.777344 18 20.609375 18L18.75 18C18.582031 18 18.433594 17.890625 18.40625 17.746094zM23.199219 20.398438L22 20.398438C22 20.398438 21.996094 20.398438 21.996094 20.398438L17.203125 20.398438C17.203125 20.398438 17.199219 20.398438 17.199219 20.398438L16 20.398438 16 18.800781 23.199219 18.800781zM23.199219 20.398438"/>
    <path d="M 0 23.601562 L 0.800781 23.601562 C 0.800781 23.820312 0.980469 24 1.199219 24 C 1.421875 24 1.601562 23.820312 1.601562 23.601562 L 12.800781 23.601562 C 12.800781 23.820312 12.980469 24 13.199219 24 C 13.421875 24 13.601562 23.820312 13.601562 23.601562 L 14.398438 23.601562 L 14.398438 0 L 0 0 Z M 0.800781 0.800781 L 13.601562 0.800781 L 13.601562 22.800781 L 0.800781 22.800781 Z M 0.800781 0.800781"/>
</svg>

<svg xmlns="http://www.w3.org/2000/svg" width="32" height="32" viewBox="0 0 24 24">
    <path d="M7.602 22.398h5.597V1.2h-12v21.2zm4.796-.796H7.602v-4.403h4.796zM11.2 16.398h-.398v-2.796h.398zm-1.199 0h-.398v-2.796H10zm2 0v-2.796h.398v2.796zm.398-3.597H8.801v3.597H7.6V12h4.797zm0-1.602H7.602V6.801h4.796zM7.602 2h4.796v4H7.602zM2 2h4.8v4H2zm0 4.8h4.8v4.4H5.603V7.601H2zm1.602 4.4h-.403V8.397h.403zm1.199 0h-.403V8.397h.403zM2 8.397h.398V11.2H2zM2 12h4.8v4.398H2zm0 9.602v-4.403h4.8v4.403zm0 0"/>
    <path d="M10.8 17.602H9.2a.398.398 0 1 0 0 .796h1.6a.398.398 0 1 0 0-.796zm0 0M5.2 17.602H3.601a.398.398 0 1 0 0 .796h1.597a.398.398 0 1 0 0-.796zm0 0M24 18h-2.29c.009-.031.02-.063.028-.098a1.11 1.11 0 0 0-.34-1.043c-.32-.297-.527-.62-.609-.957l-.078-.3H20v-1.258a1.6 1.6 0 0 0 1.2-1.543v-2H18v2a1.6 1.6 0 0 0 1.2 1.543v1.258h-.552l-.078.3c-.082.336-.289.66-.61.957a1.12 1.12 0 0 0-.339 1.043c.008.035.02.067.031.098H15.2v3.2h1.395l-.961 2.241a.405.405 0 0 0 .21.528c.052.02.102.031.157.031.156 0 .305-.09.367-.242l1.098-2.559h4.273l1.094 2.559c.066.152.211.242.367.242a.466.466 0 0 0 .16-.031c.2-.09.297-.324.207-.528l-.96-2.242H24zm-4-6.398h.398V12.8a.8.8 0 0 1-.398.691zM18.8 12.8v-1.2h.4v1.891a.8.8 0 0 1-.4-.691zm-.394 4.945a.321.321 0 0 1 .098-.3c.348-.321.598-.673.746-1.048h.86c.152.375.402.727.745 1.047.043.035.13.14.098.301-.027.145-.176.254-.344.254H18.75c-.168 0-.316-.11-.344-.254zm4.793 2.652H22h-4.797H16v-1.597h7.2zm0 0"/>
    <path d="M0 23.602h.8a.4.4 0 0 0 .802 0H12.8a.4.4 0 0 0 .8 0h.797V0H0zM.8.8h12.802v22H.8zm0 0"/>
</svg>
